X:1
T:Det norske FLag
T:Norway's flag
T:Lars Møller-Ibsen
T:C. N. Schwach 
T:English words by Auber Forestier
C:Lars Møller-Ibsen
Z:C. N. Schwach
%%score [ 1 2 3 4 ]
L:1/8
Q:1/4=92
M:4/4
K:Bb
V:1 treble nm="Soprano"
V:2 treble nm="Alto"
V:3 treble-8 nm="Tenor"
V:4 bass nm="Bass"
V:1
"^Allegro Moderato.\nTempi di Marcia.\n"!mf! F | B2 c3/2 c/ d2 B F | e2 d2 c3 d | %3
w: 1.The|North Sea is lash- ing the|rock- bound strand, Our|
w: 2.Thou|flowr's of the palm, on the|free soil found, Tri-|
w: 3.From|Hea- ven the Da- ne- brog|flag fell down, Thro'|
 B2 A3/2 A/ G2 c3/2 c/ | (B2 A2) B2 z F |!<(! F2 G A B2 d3/2!<)! d/ | c2 B2 A3!f! c | %7
w: proud re- col- lec- tions a-|wak- * king Of|Dra- gons it bore to the|far off land, The|
w: col- red and beau- ti- ful|flo- * wer! The|cross there of white on the|blood- red ground from|
w: a- ges the twin na- tions'|glo- * ry; In|war and in peace 'twas the|Dra- gon's crown, a-|
 f2 A B c2 F3/2 G/ | (A2 G2) F2 z |:!mf! F | c3 B!<(! (A>B) c d!<)! | e2 d2 c2 z!f! f | %12
w: fame of our fore- fa- thers'|mak- * ing.|Up,|North- men, strike _ till your|harp- strings ring, A|
w: Da- ne- brog that was thy|do- * wer;|The|heart's own leaf, _ thought, of|dus- ky blue, from|
w: glow with good for- tune in|sto- * ry.|O|Nor- way's flag, _ to thy-|self be true, nor|
 f2 d2 (d>c) (B c) | d2 c2 B2 z :| %14
w: song for Nor- * ro- way's|young flag sing.|
w: free- dom's mar- * row _|first it grew.|
w: lose thy heart- * leaf of|dus- ky blue.|
V:2
!mf! F | D2 F3/2 F/ F2 F F | F2 F2 F3 D | D2 D3/2 D/ B,2 G3/2 G/ | F4 F2 z D | %5
w: 1.The|North Sea is lash- ing the|rock- bound strand, Our|proud re- col- lec- tions a-|wak- king Of|
w: 2.Thou|flowr's of the palm, on the|free soil found, Tri-|col- red and beau- ti- ful|flo- wer! The|
w: 3.From|Hea- ven the Da- ne- brog|flag fell down, Thro'|a- ges the twin na- tions'|glo- ry; In|
!<(! D2 =E ^F G2 G3/2!<)! G/ | G2 =E2 =F3!f! E | F2 F F F2 D3/2 F/ | (F2 =E2) F2 z |:!mf! F | %10
w: Dra- gons it bore to the|far off land, The|fame of our fore- fa- thers'|mak- * ing.|Up,|
w: cross there of white on the|blood- red ground from|Da- ne- brog that was thy|do- * wer;|The|
w: war and in peace 'twas the|Dra- gon's crown, a-|glow with good for- tune in|sto- * ry.|O|
 E3 D!<(! F2 F F!<)! | F2 F2 F2 z!f! A | B2 ^F2 G2 (G G) | =F2 E2 D2 z :| %14
w: North- men, strike till your|harp- strings ring, A|song for Nor- ro- way's|young flag sing.|
w: heart's own leaf, thought, of|dus- ky blue, from|free- dom's mar- row _|first it grew.|
w: Nor- way's flag, to thy-|self be true, nor|lose thy heart- leaf of|dus- ky blue.|
V:3
!mf! F | F2 A3/2 A/ B2 d d | c2 B2 A3 A | G2 =F3/2 F/ B2 e3/2 e/ | (d2 c2) d2 z B | %5
w: 1.The|North Sea is lash- ing the|rock- bound strand, Our|proud re- col- lec- tions a-|wak- * king Of|
w: 2.Thou|flowr's of the palm, on the|free soil found, Tri-|col- red and beau- ti- ful|flo- * wer! The|
w: 3.From|Hea- ven the Da- ne- brog|flag fell down, Thro'|a- ges the twin na- tions'|glo- * ry; In|
!<(! d2 d c B2 B3/2!<)! B/ | c2 c2 c3!f! B | c2 d d c2 B3/2 d/ | (c2 B2) A2 z |:!mf! F | %10
w: Dra- gons it bore to the|far off land, The|fame of our fore- fa- thers'|mak- * ing.|Up,|
w: cross there of white on the|blood- red ground from|Da- ne- brog that was thy|do- * wer;|The|
w: war and in peace 'twas the|Dra- gon's crown, a-|glow with good for- tune in|sto- * ry.|O|
 A3 B!<(! (c>d) A B!<)! | A2 B2 A2 z!f! c | d2 c2 B2 (B B) | B2 A2 B2 z :| %14
w: North- men, strike _ till your|harp- strings ring, A|song for Nor- ro- way's|young flag sing.|
w: heart's own leaf, _ thought, of|dus- ky blue, from|free- dom's mar- row _|first it grew.|
w: Nor- way's flag, _ to thy-|self be true, nor|lose thy heart- leaf of|dus- ky blue.|
V:4
!mf! F, | B,,2 F,3/2 F,/ B,2 B, B, | A,2 B,2 F,3 ^F, | G,2 D,3/2 D,/ E,2 C,3/2 C,/ | %4
w: 1.The|North Sea is lash- ing the|rock- bound strand, Our|proud re- col- lec- tions a-|
w: 2.Thou|flowr's of the palm, on the|free soil found, Tri-|col- red and beau- ti- ful|
w: 3.From|Hea- ven the Da- ne- brog|flag fell down, Thro'|a- ges the twin na- tions'|
 (F,2 F,,2) B,,2 z B, |!<(! B,2 B, A, G,2 F,3/2!<)! F,/ | =E,2 C,2 F,3!f! G, | %7
w: wak- * king Of|Dra- gons it bore to the|far off land, The|
w: flo- * wer! The|cross there of white on the|blood- red ground from|
w: glo- * ry; In|war and in peace 'twas the|Dra- gon's crown, a-|
 A,2 D, D, A,,2 B,,3/2 B,,/ | C,4 F,,2 z |:!mf! F, | F,3 F,!<(! F,2 F, F,!<)! | %11
w: fame of our fore- fa- thers'|mak- ing.|Up,|North- men, strike till your|
w: Da- ne- brog that was thy|do- wer;|The|heart's own leaf, thought, of|
w: glow with good for- tune in|sto- ry.|O|Nor- way's flag, to thy-|
 F,2 B,2 F,2 z!f! E, | D,2 D,2 E,2 (E, =E,) | F,2 F,2 B,,2 z :| %14
w: harp- strings ring, A|song for Nor- ro- way's|young flag sing.|
w: dus- ky blue, from|free- dom's mar- row _|first it grew.|
w: self be true, nor|lose thy heart- leaf of|dus- ky blue.|

